public/flags/LY.svg

<svg fill="none" height="53" viewBox="0 0 61 53" width="61" xmlns="http://www.w3.org/2000/svg" xmlns:xlink="http://www.w3.org/1999/xlink"><filter id="a" color-interpolation-filters="sRGB" filterUnits="userSpaceOnUse" height="14.1667" width="59" x="1" y="17.1667"><feFlood flood-opacity="0" result="BackgroundImageFix"/><feColorMatrix in="SourceAlpha" type="matrix" values="0 0 0 0 0 0 0 0 0 0 0 0 0 0 0 0 0 0 127 0"/><feOffset/><feColorMatrix type="matrix" values="0 0 0 0 0 0 0 0 0 0 0 0 0 0 0 0 0 0 0.06 0"/><feBlend in2="BackgroundImageFix" mode="normal" result="effect1_dropShadow"/><feBlend in="SourceGraphic" in2="effect1_dropShadow" mode="normal" result="shape"/></filter><filter id="b" color-interpolation-filters="sRGB" filterUnits="userSpaceOnUse" height="14.1667" width="59" x="1" y="31.3333"><feFlood flood-opacity="0" result="BackgroundImageFix"/><feColorMatrix in="SourceAlpha" type="matrix" values="0 0 0 0 0 0 0 0 0 0 0 0 0 0 0 0 0 0 127 0"/><feOffset/><feColorMatrix type="matrix" values="0 0 0 0 0 0 0 0 0 0 0 0 0 0 0 0 0 0 0.06 0"/><feBlend in2="BackgroundImageFix" mode="normal" result="effect1_dropShadow"/><feBlend in="SourceGraphic" in2="effect1_dropShadow" mode="normal" result="shape"/></filter><mask id="c" height="43" maskUnits="userSpaceOnUse" width="59" x="1" y="3"><rect fill="#fff" height="42.5" rx="4.24286" width="59" x="1" y="3"/></mask><rect fill="#fff" height="42.5" rx="4.24286" width="59" x="1" y="3"/><g mask="url(#c)"><g filter="url(#a)"><path clip-rule="evenodd" d="m1 31.3334h59v-14.1667h-59z" fill="#262626" fill-rule="evenodd"/></g><g filter="url(#b)"><path clip-rule="evenodd" d="m1 45.5h59v-14.1667h-59z" fill="#34b857" fill-rule="evenodd"/></g><g clip-rule="evenodd" fill-rule="evenodd"><path d="m1 17.1667h59v-14.1667h-59z" fill="#f41f34"/><path d="m30.4999 28.5c.8666 0 1.6722-.2638 2.3419-.7161-.0776.0052-.1558.0078-.2348.0078-1.9395 0-3.5119-1.5857-3.5119-3.5417s1.5724-3.5417 3.5119-3.5417c.079 0 .1573.0027.2349.0078-.6698-.4523-1.4753-.7161-2.342-.7161-2.3275 0-4.2143 1.9028-4.2143 4.25s1.8868 4.25 4.2143 4.25zm4.2143-4.25c0 .7824-.6289 1.4167-1.4047 1.4167-.7759 0-1.4048-.6343-1.4048-1.4167s.6289-1.4167 1.4048-1.4167c.7758 0 1.4047.6343 1.4047 1.4167z" fill="#fff"/></g></g></svg>

<svg width="61" height="53" viewBox="0 0 61 53" fill="none" xmlns="http://www.w3.org/2000/svg">
<rect x="1" y="3" width="59" height="42.5" rx="4.24286" fill="white"/>
<mask id="mask0" mask-type="alpha" maskUnits="userSpaceOnUse" x="1" y="3" width="59" height="43">
<rect x="1" y="3" width="59" height="42.5" rx="4.24286" fill="white"/>
</mask>
<g mask="url(#mask0)">
<g filter="url(#filter0_d)">
<path fill-rule="evenodd" clip-rule="evenodd" d="M1 31.3334H60V17.1667H1V31.3334Z" fill="#262626"/>
</g>
<g filter="url(#filter1_d)">
<path fill-rule="evenodd" clip-rule="evenodd" d="M1 45.5H60V31.3333H1V45.5Z" fill="#34B857"/>
</g>
<path fill-rule="evenodd" clip-rule="evenodd" d="M1 17.1667H60V3H1V17.1667Z" fill="#F41F34"/>
<path fill-rule="evenodd" clip-rule="evenodd" d="M30.4999 28.5C31.3665 28.5 32.1721 28.2362 32.8418 27.7839C32.7642 27.7891 32.686 27.7917 32.607 27.7917C30.6675 27.7917 29.0951 26.206 29.0951 24.25C29.0951 22.294 30.6675 20.7083 32.607 20.7083C32.686 20.7083 32.7643 20.711 32.8419 20.7161C32.1721 20.2638 31.3666 20 30.4999 20C28.1724 20 26.2856 21.9028 26.2856 24.25C26.2856 26.5972 28.1724 28.5 30.4999 28.5ZM34.7142 24.25C34.7142 25.0324 34.0853 25.6667 33.3095 25.6667C32.5336 25.6667 31.9047 25.0324 31.9047 24.25C31.9047 23.4676 32.5336 22.8333 33.3095 22.8333C34.0853 22.8333 34.7142 23.4676 34.7142 24.25Z" fill="white"/>
</g>
<defs>
<filter id="filter0_d" x="1" y="17.1667" width="59" height="14.1667" filterUnits="userSpaceOnUse" color-interpolation-filters="sRGB">
<feFlood flood-opacity="0" result="BackgroundImageFix"/>
<feColorMatrix in="SourceAlpha" type="matrix" values="0 0 0 0 0 0 0 0 0 0 0 0 0 0 0 0 0 0 127 0"/>
<feOffset/>
<feColorMatrix type="matrix" values="0 0 0 0 0 0 0 0 0 0 0 0 0 0 0 0 0 0 0.06 0"/>
<feBlend mode="normal" in2="BackgroundImageFix" result="effect1_dropShadow"/>
<feBlend mode="normal" in="SourceGraphic" in2="effect1_dropShadow" result="shape"/>
</filter>
<filter id="filter1_d" x="1" y="31.3333" width="59" height="14.1667" filterUnits="userSpaceOnUse" color-interpolation-filters="sRGB">
<feFlood flood-opacity="0" result="BackgroundImageFix"/>
<feColorMatrix in="SourceAlpha" type="matrix" values="0 0 0 0 0 0 0 0 0 0 0 0 0 0 0 0 0 0 127 0"/>
<feOffset/>
<feColorMatrix type="matrix" values="0 0 0 0 0 0 0 0 0 0 0 0 0 0 0 0 0 0 0.06 0"/>
<feBlend mode="normal" in2="BackgroundImageFix" result="effect1_dropShadow"/>
<feBlend mode="normal" in="SourceGraphic" in2="effect1_dropShadow" result="shape"/>
</filter>
</defs>
</svg>
